material/.icons/material/hand-peace-variant.svg

<svg xmlns="http://www.w3.org/2000/svg" viewBox="0 0 24 24"><path d="M7 19h8v3H7v-3m9.94-18c-.54-.09-1.07.25-1.18.8l-1.01 5.77c-.22-.03-.46-.07-.75-.1l-.43.03-1.16-5.7c-.1-.54-.63-.89-1.17-.8-.54.13-.89.66-.79 1.2l1.2 5.91-3.8 1.69c-.5.2-.85.73-.85 1.34v4.36c0 .8.73 1.5 1.5 1.5H15c.39 0 .74-.16 1-.43l.5-.41s.5-.38.5-.8V13s0-1.14-.87-1.7l1.58-9.1c.12-.54-.21-1.07-.77-1.2z"/></svg>

<?xml version="1.0" encoding="UTF-8"?><!DOCTYPE svg PUBLIC "-//W3C//DTD SVG 1.1//EN" "http://www.w3.org/Graphics/SVG/1.1/DTD/svg11.dtd"><svg xmlns="http://www.w3.org/2000/svg" xmlns:xlink="http://www.w3.org/1999/xlink" version="1.1" id="mdi-hand-peace-variant" width="24" height="24" viewBox="0 0 24 24"><path d="M7,19H15V22H7V19M16.94,1C16.4,0.91 15.87,1.25 15.76,1.8L14.75,7.57C14.53,7.54 14.29,7.5 14,7.47L13.57,7.5L12.41,1.8C12.31,1.26 11.78,0.91 11.24,1C10.7,1.13 10.35,1.66 10.45,2.2L11.65,8.11L7.85,9.8C7.35,10 7,10.53 7,11.14V15.5C7,16.3 7.73,17 8.5,17H15C15.39,17 15.74,16.84 16,16.57L16.5,16.16C16.5,16.16 17,15.78 17,15.36V13C17,13 17,11.86 16.13,11.3L17.71,2.2C17.83,1.66 17.5,1.13 16.94,1Z" /></svg>
